X: 26
T: Missa Ave sanctissima Maria / Loco Deo Gratias
N: Derived from Rue1005f-Missa_Ave_sanctissima_Maria-Loco_Deo_Gratias.krn
C: Pierre de la Rue
%%abc-version 2.0
%%abcx-abcm2ps-target-version 5.9.1 (29 Sep 2008)
%%abc-creator hum2abc beta
%%abcx-conversion-date 2019/02/17 08:01:10
%%abc-edited-by Jesse Rodin
%%abc-edited-by Chris Gage 01-02-2013
%%abcx-initial-encoding-date 2013/07/19/
%%humdrum-veritas 53843944
%%humdrum-veritas-data 2135897950
%%linebreak <none>
%%barnumbers 0
L: 1/4
M: 2/1
Q: 1/2=120
V: 1 clef=treble
V: 2 clef=treble-8
V: 3 clef=treble-8
V: 4 clef=treble-8
V: 5 clef=bass
K: C
[V:1] A8 | 
[V:2] f8- | 
[V:3] F8- | 
[V:4] d8 | 
[V:5] D,8- | 
[V:1] _B4A4- | 
[V:2] f8 | 
[V:3] F8 | 
[V:4] d6cB | 
[V:5] D,8 | 
[V:1] A2GF_B2A2- | 
[V:2] d8 | 
[V:3] F8 | 
[V:4] A4D4 | 
[V:5] D,8 | 
[V:1] A2G2F2ED | 
[V:2] d8 | 
[V:3] F8 | 
[V:4] A8 | 
[V:5] D,8 | 
[V:1] !fermata!C8 | 
[V:2] !fermata!e8 | 
[V:3] !fermata!E8 | 
[V:4] !fermata!A8 | 
[V:5] !fermata!A,,8 | 
[V:1] A8 | 
[V:2] c6BA | 
[V:3] F8 | 
[V:4] A8 | 
[V:5] z8 | 
[V:1] A8 | 
[V:2] c2d4^c2 | 
[V:3] E2D2E4 | 
[V:4] A8 | 
[V:5] A,,8 | 
[V:1] D4F4 | 
[V:2] d6c2 | 
[V:3] D8 | 
[V:4] F8 | 
[V:5] _B,,6A,,2 | 
[V:1] G4A4 | 
[V:2] B4A4 | 
[V:3] E4F4- | 
[V:4] z8 | 
[V:5] G,,4F,,4 | 
[V:1] D8 | 
[V:2] z4F4 | 
[V:3] F2E2D4 | 
[V:4] D8 | 
[V:5] _B,,8 | 
[V:1] E4F4 | 
[V:2] c4F4 | 
[V:3] C8- | 
[V:4] A8- | 
[V:5] A,,8- | 
[V:1] !fermata!E8 | 
[V:2] !fermata!c8 | 
[V:3] !fermata!C8 | 
[V:4] !fermata!A8 | 
[V:5] !fermata!A,,8 | 
[V:1] A8 | 
[V:2] c8 | 
[V:3] C8 | 
[V:4] A8 | 
[V:5] A,,8 | 
[V:1] c8 | 
[V:2] e4e4 | 
[V:3] C8 | 
[V:4] A8 | 
[V:5] A,,8 | 
[V:1] B4G4 | 
[V:2] g8 | 
[V:3] D8 | 
[V:4] B8 | 
[V:5] G,,8 | 
[V:1] A4A4 | 
[V:2] f4d4 | 
[V:3] F8 | 
[V:4] A8 | 
[V:5] D,8 | 
[V:1] z2A4A2- | 
[V:2] z2f4f2- | 
[V:3] F4F4 | 
[V:4] A4d4 | 
[V:5] D,4D,4 | 
[V:1] A2F4ED | 
[V:2] f2d2f3e | 
[V:3] z2F4F2- | 
[V:4] z2A2A4- | 
[V:5] z2D,2D,4 | 
[V:1] F2G2A4 | 
[V:2] d2d4^c2 | 
[V:3] F2EDE4 | 
[V:4] A4A4 | 
[V:5] D,4A,,4 | 
[V:1] z2F2E2D2 | 
[V:2] d4z4 | 
[V:3] D4z2F2 | 
[V:4] A8 | 
[V:5] z2D,2C,2D,2 | 
[V:1] C2D3^CC2 | 
[V:2] z8 | 
[V:3] E3DE4 | 
[V:4] z8 | 
[V:5] A,,2B,,2A,,4 | 
[V:1] D8 | 
[V:2] z2f4f2 | 
[V:3] D8 | 
[V:4] A6A2 | 
[V:5] z8 | 
[V:1] z8 | 
[V:2] f4f4 | 
[V:3] z4z2F2- | 
[V:4] A4A4 | 
[V:5] D,8 | 
[V:1] z2A4A2 | 
[V:2] d8 | 
[V:3] F2F2F2F2 | 
[V:4] A8 | 
[V:5] D,8 | 
[V:1] A2A2G4 | 
[V:2] z8 | 
[V:3] E8 | 
[V:4] c8 | 
[V:5] A,,4C,4 | 
[V:1] z8 | 
[V:2] z2d4d2 | 
[V:3] z8 | 
[V:4] B4G4 | 
[V:5] G,,8- | 
[V:1] z8 | 
[V:2] B2B2d4 | 
[V:3] z2G4G2 | 
[V:4] z8 | 
[V:5] G,,8 | 
[V:1] z4z2G2- | 
[V:2] e4d2B2 | 
[V:3] E2E2G4 | 
[V:4] z8 | 
[V:5] z8 | 
[V:1] G2F2E2E2 | 
[V:2] c4c4 | 
[V:3] A8 | 
[V:4] z8 | 
[V:5] z8 | 
[V:1] G4A4 | 
[V:2] B2e4d2 | 
[V:3] G2E2F4 | 
[V:4] z4A4 | 
[V:5] z4D,4 | 
[V:1] G2E2F4 | 
[V:2] e4z4 | 
[V:3] E4z4 | 
[V:4] c2B2d4 | 
[V:5] E,3F,D,4 | 
[V:1] E8 | 
[V:2] c4c2c2 | 
[V:3] A4A4 | 
[V:4] e4E4 | 
[V:5] A,,4A,,4 | 
[V:1] z8 | 
[V:2] c2e3dd2 | 
[V:3] G2E2F4 | 
[V:4] E4A4 | 
[V:5] C,4D,4 | 
[V:1] c4c4 | 
[V:2] e8- | 
[V:3] E8- | 
[V:4] A8 | 
[V:5] A,,8 | 
[V:1] B2G2A4 | 
[V:2] e8- | 
[V:3] E8- | 
[V:4] z4A4 | 
[V:5] z4A,,4 | 
[V:1] G8 |]  
[V:2] e8 |]  
[V:3] E8 |]  
[V:4] B8 |]  
[V:5] E,,8 |]  



